Newaita-dark/apps/32/com.github.lainsce.coin.svg

<svg height="32" viewBox="0 0 32 32" width="32" xmlns="http://www.w3.org/2000/svg" xmlns:xlink="http://www.w3.org/1999/xlink"><linearGradient id="a"><stop offset="0" stop-opacity=".313726"/><stop offset=".222222" stop-opacity=".27451"/><stop offset="1" stop-opacity="0"/></linearGradient><radialGradient id="b" cx="450.908936" cy="189.579361" gradientTransform="matrix(.00000017 -.0781325 -.140638 -.0000001 44.523152 63.595329)" gradientUnits="userSpaceOnUse" r="21.166656" xlink:href="#a"/><radialGradient id="c" cx="450.908936" cy="189.579361" gradientTransform="matrix(-.00000017 .0781325 .140638 .0000001 -12.770119 -7.527482)" gradientUnits="userSpaceOnUse" r="21.166656" xlink:href="#a"/><radialGradient id="d" cx="450.908936" cy="189.579361" gradientTransform="matrix(-.00000017 -.0781325 .140638 -.0000001 -12.770119 63.595329)" gradientUnits="userSpaceOnUse" r="21.166656" xlink:href="#a"/><radialGradient id="e" cx="450.908936" cy="189.579361" gradientTransform="matrix(.00000017 .0781325 -.140638 .0000001 44.52315 -7.527483)" gradientUnits="userSpaceOnUse" r="21.166656" xlink:href="#a"/><linearGradient id="f" gradientTransform="matrix(.0133601 0 0 .062506 12.465386 13.438784)" gradientUnits="userSpaceOnUse" x1="255.323059" x2="255.323044" y1="233.5" y2="254.666656"><stop offset="0" stop-opacity=".27451"/><stop offset="1" stop-opacity="0"/></linearGradient><linearGradient id="g" gradientUnits="userSpaceOnUse" x1="15.876524" x2="15.876524" y1="2.89610399997" y2="28.033934"><stop offset="0" stop-color="#ffb74d"/><stop offset="1" stop-color="#ffa726"/></linearGradient><linearGradient id="h" gradientTransform="matrix(.062506 0 0 -.062506 0 13.438783)" gradientUnits="userSpaceOnUse" x1="254" x2="254" y1="-201.75" y2="136.916672"><stop offset="0" stop-color="#e0e0e0"/><stop offset="1" stop-color="#bdbdbd"/></linearGradient><linearGradient id="i" gradientUnits="userSpaceOnUse" x1="15.876524" x2="15.876524" y1="2.89610399997" y2="28.033934"><stop offset="0" stop-color="#616161"/><stop offset="1" stop-color="#424242"/></linearGradient><path d="m18.191406 28.035156h2.648438v-1.324218h-2.648438zm0 0" fill="url(#b)"/><path d="m13.5625 28.035156h-2.648438v1.320313h2.648438zm0 0" fill="url(#c)"/><path d="m13.5625 28.035156h-2.648438v-1.324218h2.648438zm0 0" fill="url(#d)"/><path d="m18.191406 28.035156h2.648438v1.320313h-2.648438zm0 0" fill="url(#e)"/><path d="m13.5625 27.703125h4.628906v1.652344h-4.628906zm0 0" fill="url(#f)"/><path d="m15.875 2.894531c6.941406 0 12.570312 5.628907 12.570312 12.570313s-5.628906 12.570312-12.570312 12.570312-12.566406-5.628906-12.566406-12.570312 5.625-12.570313 12.566406-12.570313zm0 0" fill="url(#g)"/><path d="m15.875 28.035156c-6.960938 0-12.566406-5.605468-12.566406-12.570312 0-.039063 0-.082032 0-.121094.066406 6.902344 5.644531 12.445312 12.566406 12.445312s12.503906-5.542968 12.570312-12.445312v.121094c0 6.964844-5.605468 12.570312-12.570312 12.570312zm0 0" fill-opacity=".196078"/><path d="m15.875 2.894531c-6.960938 0-12.566406 5.605469-12.566406 12.570313v.125c.066406-6.90625 5.644531-12.449219 12.566406-12.449219s12.503906 5.542969 12.570312 12.449219c0-.042969 0-.082032 0-.125 0-6.964844-5.605468-12.570313-12.570312-12.570313zm0 0" fill="#fff" fill-opacity=".392157"/><path d="m15.875 2.800781c-7.011719 0-12.660156 5.652344-12.660156 12.664063 0 7.011718 5.648437 12.664062 12.660156 12.664062 7.015625 0 12.664062-5.652344 12.664062-12.664062 0-7.011719-5.648437-12.664063-12.664062-12.664063zm0 .1875c6.914062 0 12.476562 5.5625 12.476562 12.476563 0 6.914062-5.5625 12.476562-12.476562 12.476562-6.910156 0-12.472656-5.5625-12.472656-12.476562 0-6.914063 5.5625-12.476563 12.472656-12.476563zm0 0" fill="#212121"/><path d="m15.875 26.050781c5.847656 0 10.585938-4.738281 10.585938-10.585937 0-5.84375-4.738282-10.585938-10.585938-10.585938-5.84375 0-10.582031 4.742188-10.582031 10.585938 0 5.847656 4.738281 10.585937 10.582031 10.585937zm0 0" fill="url(#h)"/><path d="m5.296875 15.714844c-.003906.082031-.003906.164062-.003906.246094 0 5.863281 4.71875 10.585937 10.582031 10.585937 5.867188 0 10.585938-4.722656 10.585938-10.585937 0-.082032 0-.164063-.003907-.246094-.128906 5.746094-4.800781 10.335937-10.582031 10.335937-5.777344 0-10.449219-4.589843-10.578125-10.335937zm0 0" fill="#fff" fill-opacity=".392157"/><path d="m15.875 4.878906c-5.863281 0-10.582031 4.722656-10.582031 10.585938v.164062c.089843-5.785156 4.777343-10.417968 10.582031-10.417968 5.808594 0 10.496094 4.632812 10.585938 10.417968 0-.054687 0-.109375 0-.164062 0-5.863282-4.71875-10.585938-10.585938-10.585938zm0 0" fill-opacity=".235294"/><path d="m253.975747-201.7727c93.553566 0 169.358827 75.805261 169.358827 169.358827 0 93.491072-75.805261 169.358827-169.358827 169.358827-93.491073 0-169.296333-75.867755-169.296333-169.358827 0-93.553566 75.80526-169.358827 169.296333-169.358827zm0 0" fill="none" stroke="#212121" stroke-linecap="round" stroke-width="3" transform="matrix(.062506 0 0 -.062506 0 13.438783)"/><path d="m15.214844 8.851562h1.324218c.363282 0 .660157.292969.660157.660157v11.90625c0 .367187-.296875.664062-.660157.664062h-1.324218c-.363282 0-.660156-.296875-.660156-.664062v-11.90625c0-.367188.296874-.660157.660156-.660157zm0 0" fill="url(#i)"/><path d="m15.214844 8.851562c-.367188 0-.660156.292969-.660156.660157v.332031c0-.367188.292968-.664062.660156-.664062h1.324218c.367188 0 .660157.296874.660157.664062v-.332031c0-.367188-.292969-.660157-.660157-.660157zm0 0" fill="#fff" fill-opacity=".392157"/><path d="m14.554688 21.417969v.496093c0 .367188.292968.664063.660156.664063h1.324218c.367188 0 .660157-.296875.660157-.664063v-.496093c0 .367187-.292969.664062-.660157.664062h-1.324218c-.367188 0-.660156-.296875-.660156-.664062zm0 0" fill-opacity=".235294"/><path d="m243.414255-73.388523h21.185477c5.811945 0 10.561491 4.687052 10.561491 10.561491v190.48181c0 5.874439-4.749546 10.623986-10.561491 10.623986h-21.185477c-5.811945 0-10.561491-4.749547-10.561491-10.623986v-190.48181c0-5.874439 4.749546-10.561491 10.561491-10.561491zm0 0" fill="none" stroke="#212121" stroke-linecap="round" stroke-linejoin="round" stroke-width="3" transform="matrix(.062506 0 0 .062506 0 13.438783)"/></svg>

<?xml version="1.0" encoding="UTF-8"?>
<svg xmlns="http://www.w3.org/2000/svg" xmlns:xlink="http://www.w3.org/1999/xlink" width="32px" height="32px" viewBox="0 0 32 32" version="1.1">
<defs>
<radialGradient id="radial0" gradientUnits="userSpaceOnUse" cx="450.908936" cy="189.579361" fx="450.908936" fy="189.579361" r="21.166656" gradientTransform="matrix(0.00000017417,-0.0781325,-0.140638,-0.000000101539,44.523152,63.595329)">
<stop offset="0" style="stop-color:rgb(0%,0%,0%);stop-opacity:0.313726;"/>
<stop offset="0.222222" style="stop-color:rgb(0%,0%,0%);stop-opacity:0.27451;"/>
<stop offset="1" style="stop-color:rgb(0%,0%,0%);stop-opacity:0;"/>
</radialGradient>
<radialGradient id="radial1" gradientUnits="userSpaceOnUse" cx="450.908936" cy="189.579361" fx="450.908936" fy="189.579361" r="21.166656" gradientTransform="matrix(-0.00000017417,0.0781325,0.140638,0.000000101539,-12.770119,-7.527482)">
<stop offset="0" style="stop-color:rgb(0%,0%,0%);stop-opacity:0.313726;"/>
<stop offset="0.222222" style="stop-color:rgb(0%,0%,0%);stop-opacity:0.27451;"/>
<stop offset="1" style="stop-color:rgb(0%,0%,0%);stop-opacity:0;"/>
</radialGradient>
<radialGradient id="radial2" gradientUnits="userSpaceOnUse" cx="450.908936" cy="189.579361" fx="450.908936" fy="189.579361" r="21.166656" gradientTransform="matrix(-0.00000017417,-0.0781325,0.140638,-0.000000101539,-12.770119,63.595329)">
<stop offset="0" style="stop-color:rgb(0%,0%,0%);stop-opacity:0.313726;"/>
<stop offset="0.222222" style="stop-color:rgb(0%,0%,0%);stop-opacity:0.27451;"/>
<stop offset="1" style="stop-color:rgb(0%,0%,0%);stop-opacity:0;"/>
</radialGradient>
<radialGradient id="radial3" gradientUnits="userSpaceOnUse" cx="450.908936" cy="189.579361" fx="450.908936" fy="189.579361" r="21.166656" gradientTransform="matrix(0.00000017417,0.0781325,-0.140638,0.000000101539,44.52315,-7.527483)">
<stop offset="0" style="stop-color:rgb(0%,0%,0%);stop-opacity:0.313726;"/>
<stop offset="0.222222" style="stop-color:rgb(0%,0%,0%);stop-opacity:0.27451;"/>
<stop offset="1" style="stop-color:rgb(0%,0%,0%);stop-opacity:0;"/>
</radialGradient>
<linearGradient id="linear0" gradientUnits="userSpaceOnUse" x1="255.323059" y1="233.5" x2="255.323044" y2="254.666656" gradientTransform="matrix(0.0133601,0,0,0.062506,12.465386,13.438784)">
<stop offset="0" style="stop-color:rgb(0%,0%,0%);stop-opacity:0.27451;"/>
<stop offset="1" style="stop-color:rgb(0%,0%,0%);stop-opacity:0;"/>
</linearGradient>
<linearGradient id="linear1" gradientUnits="userSpaceOnUse" x1="254" y1="-168.666672" x2="254" y2="233.5" gradientTransform="matrix(0.062506,0,0,0.062506,0,13.438783)">
<stop offset="0" style="stop-color:rgb(100%,71.764708%,30.19608%);stop-opacity:1;"/>
<stop offset="1" style="stop-color:rgb(100%,65.490198%,14.901961%);stop-opacity:1;"/>
</linearGradient>
<linearGradient id="linear2" gradientUnits="userSpaceOnUse" x1="254" y1="-201.75" x2="254" y2="136.916672" gradientTransform="matrix(0.062506,0,0,-0.062506,0,13.438783)">
<stop offset="0" style="stop-color:rgb(87.843138%,87.843138%,87.843138%);stop-opacity:1;"/>
<stop offset="1" style="stop-color:rgb(74.117649%,74.117649%,74.117649%);stop-opacity:1;"/>
</linearGradient>
<linearGradient id="linear3" gradientUnits="userSpaceOnUse" x1="254" y1="-168.666672" x2="254" y2="233.5" gradientTransform="matrix(0.062506,0,0,0.062506,0,13.438783)">
<stop offset="0" style="stop-color:rgb(38.039216%,38.039216%,38.039216%);stop-opacity:1;"/>
<stop offset="1" style="stop-color:rgb(25.882354%,25.882354%,25.882354%);stop-opacity:1;"/>
</linearGradient>
</defs>
<g id="surface1">
<path style=" stroke:none;fill-rule:nonzero;fill:url(#radial0);" d="M 18.191406 28.035156 L 20.839844 28.035156 L 20.839844 26.710938 L 18.191406 26.710938 Z M 18.191406 28.035156 "/>
<path style=" stroke:none;fill-rule:nonzero;fill:url(#radial1);" d="M 13.5625 28.035156 L 10.914062 28.035156 L 10.914062 29.355469 L 13.5625 29.355469 Z M 13.5625 28.035156 "/>
<path style=" stroke:none;fill-rule:nonzero;fill:url(#radial2);" d="M 13.5625 28.035156 L 10.914062 28.035156 L 10.914062 26.710938 L 13.5625 26.710938 Z M 13.5625 28.035156 "/>
<path style=" stroke:none;fill-rule:nonzero;fill:url(#radial3);" d="M 18.191406 28.035156 L 20.839844 28.035156 L 20.839844 29.355469 L 18.191406 29.355469 Z M 18.191406 28.035156 "/>
<path style=" stroke:none;fill-rule:nonzero;fill:url(#linear0);" d="M 13.5625 27.703125 L 18.191406 27.703125 L 18.191406 29.355469 L 13.5625 29.355469 Z M 13.5625 27.703125 "/>
<path style=" stroke:none;fill-rule:nonzero;fill:url(#linear1);" d="M 15.875 2.894531 C 22.816406 2.894531 28.445312 8.523438 28.445312 15.464844 C 28.445312 22.40625 22.816406 28.035156 15.875 28.035156 C 8.933594 28.035156 3.308594 22.40625 3.308594 15.464844 C 3.308594 8.523438 8.933594 2.894531 15.875 2.894531 Z M 15.875 2.894531 "/>
<path style=" stroke:none;fill-rule:nonzero;fill:rgb(0%,0%,0%);fill-opacity:0.196078;" d="M 15.875 28.035156 C 8.914062 28.035156 3.308594 22.429688 3.308594 15.464844 C 3.308594 15.425781 3.308594 15.382812 3.308594 15.34375 C 3.375 22.246094 8.953125 27.789062 15.875 27.789062 C 22.796875 27.789062 28.378906 22.246094 28.445312 15.34375 C 28.445312 15.382812 28.445312 15.425781 28.445312 15.464844 C 28.445312 22.429688 22.839844 28.035156 15.875 28.035156 Z M 15.875 28.035156 "/>
<path style=" stroke:none;fill-rule:nonzero;fill:rgb(100%,100%,100%);fill-opacity:0.392157;" d="M 15.875 2.894531 C 8.914062 2.894531 3.308594 8.5 3.308594 15.464844 C 3.308594 15.507812 3.308594 15.546875 3.308594 15.589844 C 3.375 8.683594 8.953125 3.140625 15.875 3.140625 C 22.796875 3.140625 28.378906 8.683594 28.445312 15.589844 C 28.445312 15.546875 28.445312 15.507812 28.445312 15.464844 C 28.445312 8.5 22.839844 2.894531 15.875 2.894531 Z M 15.875 2.894531 "/>
<path style=" stroke:none;fill-rule:nonzero;fill:rgb(12.941177%,12.941177%,12.941177%);fill-opacity:1;" d="M 15.875 2.800781 C 8.863281 2.800781 3.214844 8.453125 3.214844 15.464844 C 3.214844 22.476562 8.863281 28.128906 15.875 28.128906 C 22.890625 28.128906 28.539062 22.476562 28.539062 15.464844 C 28.539062 8.453125 22.890625 2.800781 15.875 2.800781 Z M 15.875 2.988281 C 22.789062 2.988281 28.351562 8.550781 28.351562 15.464844 C 28.351562 22.378906 22.789062 27.941406 15.875 27.941406 C 8.964844 27.941406 3.402344 22.378906 3.402344 15.464844 C 3.402344 8.550781 8.964844 2.988281 15.875 2.988281 Z M 15.875 2.988281 "/>
<path style=" stroke:none;fill-rule:nonzero;fill:url(#linear2);" d="M 15.875 26.050781 C 21.722656 26.050781 26.460938 21.3125 26.460938 15.464844 C 26.460938 9.621094 21.722656 4.878906 15.875 4.878906 C 10.03125 4.878906 5.292969 9.621094 5.292969 15.464844 C 5.292969 21.3125 10.03125 26.050781 15.875 26.050781 Z M 15.875 26.050781 "/>
<path style=" stroke:none;fill-rule:nonzero;fill:rgb(100%,100%,100%);fill-opacity:0.392157;" d="M 5.296875 15.714844 C 5.292969 15.796875 5.292969 15.878906 5.292969 15.960938 C 5.292969 21.824219 10.011719 26.546875 15.875 26.546875 C 21.742188 26.546875 26.460938 21.824219 26.460938 15.960938 C 26.460938 15.878906 26.460938 15.796875 26.457031 15.714844 C 26.328125 21.460938 21.65625 26.050781 15.875 26.050781 C 10.097656 26.050781 5.425781 21.460938 5.296875 15.714844 Z M 5.296875 15.714844 "/>
<path style=" stroke:none;fill-rule:nonzero;fill:rgb(0%,0%,0%);fill-opacity:0.235294;" d="M 15.875 4.878906 C 10.011719 4.878906 5.292969 9.601562 5.292969 15.464844 C 5.292969 15.519531 5.292969 15.574219 5.292969 15.628906 C 5.382812 9.84375 10.070312 5.210938 15.875 5.210938 C 21.683594 5.210938 26.371094 9.84375 26.460938 15.628906 C 26.460938 15.574219 26.460938 15.519531 26.460938 15.464844 C 26.460938 9.601562 21.742188 4.878906 15.875 4.878906 Z M 15.875 4.878906 "/>
<path style="fill:none;stroke-width:3;stroke-linecap:round;stroke-linejoin:miter;stroke:rgb(12.941177%,12.941177%,12.941177%);stroke-opacity:1;stroke-miterlimit:4;" d="M 253.975747 -201.7727 C 347.529313 -201.7727 423.334574 -125.967439 423.334574 -32.413873 C 423.334574 61.077199 347.529313 136.944954 253.975747 136.944954 C 160.484674 136.944954 84.679414 61.077199 84.679414 -32.413873 C 84.679414 -125.967439 160.484674 -201.7727 253.975747 -201.7727 Z M 253.975747 -201.7727 " transform="matrix(0.062506,0,0,-0.062506,0,13.438783)"/>
<path style=" stroke:none;fill-rule:nonzero;fill:url(#linear3);" d="M 15.214844 8.851562 L 16.539062 8.851562 C 16.902344 8.851562 17.199219 9.144531 17.199219 9.511719 L 17.199219 21.417969 C 17.199219 21.785156 16.902344 22.082031 16.539062 22.082031 L 15.214844 22.082031 C 14.851562 22.082031 14.554688 21.785156 14.554688 21.417969 L 14.554688 9.511719 C 14.554688 9.144531 14.851562 8.851562 15.214844 8.851562 Z M 15.214844 8.851562 "/>
<path style=" stroke:none;fill-rule:nonzero;fill:rgb(100%,100%,100%);fill-opacity:0.392157;" d="M 15.214844 8.851562 C 14.847656 8.851562 14.554688 9.144531 14.554688 9.511719 L 14.554688 9.84375 C 14.554688 9.476562 14.847656 9.179688 15.214844 9.179688 L 16.539062 9.179688 C 16.90625 9.179688 17.199219 9.476562 17.199219 9.84375 L 17.199219 9.511719 C 17.199219 9.144531 16.90625 8.851562 16.539062 8.851562 Z M 15.214844 8.851562 "/>
<path style=" stroke:none;fill-rule:nonzero;fill:rgb(0%,0%,0%);fill-opacity:0.235294;" d="M 14.554688 21.417969 L 14.554688 21.914062 C 14.554688 22.28125 14.847656 22.578125 15.214844 22.578125 L 16.539062 22.578125 C 16.90625 22.578125 17.199219 22.28125 17.199219 21.914062 L 17.199219 21.417969 C 17.199219 21.785156 16.90625 22.082031 16.539062 22.082031 L 15.214844 22.082031 C 14.847656 22.082031 14.554688 21.785156 14.554688 21.417969 Z M 14.554688 21.417969 "/>
<path style="fill:none;stroke-width:3;stroke-linecap:round;stroke-linejoin:round;stroke:rgb(12.941177%,12.941177%,12.941177%);stroke-opacity:1;stroke-miterlimit:4;" d="M 243.414255 -73.388523 L 264.599732 -73.388523 C 270.411677 -73.388523 275.161223 -68.701471 275.161223 -62.827032 L 275.161223 127.654778 C 275.161223 133.529217 270.411677 138.278764 264.599732 138.278764 L 243.414255 138.278764 C 237.60231 138.278764 232.852764 133.529217 232.852764 127.654778 L 232.852764 -62.827032 C 232.852764 -68.701471 237.60231 -73.388523 243.414255 -73.388523 Z M 243.414255 -73.388523 " transform="matrix(0.062506,0,0,0.062506,0,13.438783)"/>
</g>
</svg>
